X: 36235
T: Scutchers, The
R: reel
M: 4/4
K: Gmajor
|:DG G2 AG G2|BDGB ABcA|DG G2 AGAB|cABG ABcA|
DG G2 AD D2|DG G2 ADFA|DG G2 AGAB|c2 Bc ABcd:|
|:e2 de gdBd|e2 de gabg|e2 de gdBd|cdBc ABcd|
e2 de gdBd|e2 de gabg|abga egde|cdBc ABcA:|

